public/images/icons/32x32/site_32_purple.svg

<svg xmlns="http://www.w3.org/2000/svg" width="32" height="32" viewBox="0 0 32 32">
  <g fill="#1E1169" stroke="#1E1169" stroke-width=".5" transform="translate(3 6)">
    <path d="M15.7446809,20 L9.36170213,20 L9.36170213,16.393617 L15.7446809,16.393617 L15.7446809,20 Z M10.0425532,19.3191489 L15.0744681,19.3191489 L15.0744681,17.0744681 L10.0425532,17.0744681 L10.0425532,19.3191489 Z"/>
    <path d="M22.9787234 17.0744681L2.12765957 17.0744681C.978723404 17.0744681.0425531915 16.1382979.0425531915 14.9893617L.0425531915 2.07446809C.0531914894.936170213.978723404 0 2.12765957 0L22.9787234 0C24.1276596 0 25.0638298.936170213 25.0638298 2.08510638L25.0638298 15C25.0531915 16.1382979 24.1276596 17.0744681 22.9787234 17.0744681zM2.12765957.680851064C1.35106383.680851064.723404255 1.30851064.723404255 2.08510638L.723404255 15C.723404255 15.7765957 1.35106383 16.4042553 2.12765957 16.4042553L22.9787234 16.4042553C23.7553191 16.4042553 24.3829787 15.7765957 24.3829787 15L24.3829787 2.07446809C24.3829787 1.29787234 23.7553191.670212766 22.9787234.670212766L2.12765957.670212766 2.12765957.680851064zM18.4361702 20L6.67021277 20C6.4787234 20 6.32978723 19.8510638 6.32978723 19.6595745 6.32978723 19.4680851 6.4787234 19.3191489 6.67021277 19.3191489L18.4255319 19.3191489C18.6170213 19.3191489 18.7659574 19.4680851 18.7659574 19.6595745 18.7659574 19.8510638 18.6170213 20 18.4361702 20z"/>
    <path d="M12.5531915 15.7234043C12.9148936 15.7234043 13.212766 15.4255319 13.212766 15.0638298 13.212766 14.6914894 12.9148936 14.393617 12.5531915 14.393617 12.1808511 14.393617 11.8829787 14.6914894 11.8829787 15.0638298 11.893617 15.4361702 12.1914894 15.7234043 12.5531915 15.7234043L12.5531915 15.7234043zM24.712766 13.8404255L.393617021 13.8404255C.20212766 13.8404255.0531914894 13.6914894.0531914894 13.5.0531914894 13.3085106.20212766 13.1595745.393617021 13.1595745L24.7234043 13.1595745C24.9148936 13.1595745 25.0638298 13.3085106 25.0638298 13.5 25.0638298 13.6914894 24.9042553 13.8404255 24.712766 13.8404255z"/>
  </g>
</svg>

<svg height="32" viewBox="0 0 32 32" width="32" xmlns="http://www.w3.org/2000/svg"><g fill="#1e1169" stroke="#1e1169" stroke-width=".5" transform="translate(3 6)"><path d="m15.7446809 20h-6.38297877v-3.606383h6.38297877zm-5.7021277-.6808511h5.0319149v-2.2446808h-5.0319149z"/><path d="m22.9787234 17.0744681h-20.85106383c-1.14893617 0-2.08510638-.9361702-2.08510638-2.0851064v-12.91489361c.0106383-1.13829788.93617021-2.07446809 2.08510638-2.07446809h20.85106383c1.1489362 0 2.0851064.93617021 2.0851064 2.08510638v12.91489362c-.0106383 1.1382979-.9361702 2.0744681-2.0851064 2.0744681zm-20.85106383-16.39361704c-.77659574 0-1.40425531.62765958-1.40425531 1.40425532v12.91489362c0 .7765957.62765957 1.4042553 1.40425531 1.4042553h20.85106383c.7765957 0 1.4042553-.6276596 1.4042553-1.4042553v-12.92553191c0-.77659575-.6276596-1.40425532-1.4042553-1.40425532h-20.85106383zm16.30851063 19.31914894h-11.76595743c-.19148937 0-.34042554-.1489362-.34042554-.3404255 0-.1914894.14893617-.3404256.34042554-.3404256h11.75531913c.1914894 0 .3404255.1489362.3404255.3404256 0 .1914893-.1489361.3404255-.3297872.3404255z"/><path d="m12.5531915 15.7234043c.3617021 0 .6595745-.2978724.6595745-.6595745 0-.3723404-.2978724-.6702128-.6595745-.6702128-.3723404 0-.6702128.2978724-.6702128.6702128.0106383.3723404.3085107.6595745.6702128.6595745zm12.1595745-1.8829788h-24.31914898c-.19148936 0-.34042553-.1489361-.34042553-.3404255s.14893617-.3404255.34042553-.3404255h24.32978728c.1914893 0 .3404255.1489361.3404255.3404255s-.1595745.3404255-.3510638.3404255z"/></g></svg>
